X:1
T:060 - Coroai
T:Letra: Edward Perronet (1726-1792) (1,2 e 3 estr.)
T: e John Rippon (1751-1836) (4 estr.)
T:Trad.: Justus Henry Nelson (1849-1931)
T:Música: James Elior (1819-1899)
M:3/4
L:1/8
Q:1/4=110
K:Abmaj
V:1
E2| "Ab"A4B2| (c3/2d/2e2) A2| ("Bbm"B2"(Ab/Eb)"A2)"Eb"G2 | "Ab"A2z2(GF)| E3E FF| (E2A2)E2| ("Db"F2d2)d2| "Ab/Eb"c4"Eb7"B2| "Ab"A2z2 (AB)| c4c2| (c2B2)A2| ("Bbm"B2"(Ab/Eb)"A2)"Eb"G2 | ("Ab"A3/2B/2 c2) e2| ("Db"d3c Bd| "Ab"c3B Ac| "Eb"B3A GB| "Ab"A2) A2z2| "Db"d2d2z2| "Eb"B2B2z2| "Ab"c2c2e2| (A3/2B/2c2)"Db"d2| "Ab/Eb"c4"Eb7"B2| "Ab"A4|]
w: 1.~Sau-dai o No__me de_ Je-sus! Ar_can-jos, vos pros-trai!_ Ar_can-jos, vos pros-trai! O_ Fi-lho do_ glo-rio_so Deus__ Com gló____________ria, Gló-ria, gló-ria, gló-ria, Com gló__ria co-ro-ai!  
w: 2.~Ó es-co-lhi__da ge_ra-ção Do_ bom, e-ter-no Pai_ Do bom,_ e-ter-no Pai:  O_ gran-deAu-tor_ da sal_va-ção,__
w: 3.~Ó per-do-a__dos por_ Je-sus, A_le-gres a-do-rai!_ A-le_gres a-do-rai! O_ Deus de paz,_ o Deus_ de luz__
w: 4.~Ó ra-ças, tri__bos e_ na-ções, Ao_ Rei di-vi-nohon-rai_ Ao Rei_ di-vi-nohon-rai;  A_ quem que-brou_ os vis_ gri-lhões__
W: 
W:
W: 1. Saudai o Nome de Jesus!
W: Arcanjos, vos prostrai!
W: Arcanjos, vos prostrai! 
W: O Filho do glorioso Deus
W:
W: (Estribilho)
W: Com glória
W: Glória, glória, glória,
W: Com glória coroai! 
W: 
W: 2. Ó escolhida geração
W: Do bom, eterno Pai
W: Do bom, eterno Pai: 
W: O grande Autor da salvação,
W: 
W:
W:
W: 3. Ó perdoados por Jesus,
W: Alegres adorai!
W: Alegres adorai! 
W: O Deus de paz, o Deus de luz
W: Com glória coroai!
W: 
W: 4. Ó raças, tribos e nações,
W: Ao Rei divino honrai;
W: Ao Rei divino honrai; 
W: A quem quebrou os vis grilhões
W: Com glória coroai!
W: 
W: 





%wordsfont Times-Roman 13.0
%vocalfont Times-Roman 13.0
